X: 1377
T: Come To The Bottle House
M:C|
L:1/8
N:"collected by Mrs. Cantwell"
B:O'Neill's 1377
Z:"Transcribed by Bob Safranek, rjs@gsp.org"
K:A
(ed) | cBAc BAFE | FBBA B2 (ed) | cBAc BAFE | EdcB A2 :|
|: ((3efg) | a2 ge ((3fga) ec | B2 {c}BA BdcB | A2 ae ((3fga) ec | dfec A2 :|


